X: 1520
T: Nişâburek Sazsemâîsi
C: Enverî
O: Turkey
F: http://compmusic.upf.edu/node/140
N: nisaburek--sazsemaisi--aksaksemai----munir_mazhar_kamsoy
N: makam= nisaburek
N: form= sazsemaisi
N: usul= aksaksemai = 10/8
M: 10/8
L: 1/16
K: C ^9/8f ^3/4c ^3/4g 
Q: 1/4=132
%%MIDI tuningsystem comma53
A4 e2e3fe3/2d/ cde4z2  | f2e2 d2c2 Bfe2 d2c2 B2c2  | 
w:  1. HANE  |   | 
d4 cde3fe2 d2c2 B2A2  | a4 g2a3/2g/ ab(3=gfe fged cBc2  | 
w:   |   | 
ba{b}a=g {a}gf{g}fe {f}efed cde4Ac  | \
w:   | 
e2z2 Ace3fe2 d2c2 B2{c}Bc  | 
w:  TESLİM  | 
d2z2 Acd3fe2 d2c2 BcAB  | c2z2 ABc3dc2 B2A2 GA{B}GA  | 
w:   |   | 
B2z2 E2fe {f}eddc {d}cBBA GFE2  | \
w:   | 
e4 d2(3cBc d2(3BAB c2A3FAc  | 
w:   | 
e2z2 Ace3fe2 d2c2 B2{c}Bc  | d2z2 Acd3fe2 d2c2 BcAB  | 
w:  TESLİM  |   | 
c2z2 ABc3dc2 B2A2 GA{B}GA  | B2z2 E2fe {f}eddc {d}cBBA GFE2  | 
w:   |   | 
e4 d2(3cBc d2(3BAB c2A4z2  | E4 c2B3fec dBA4z2  | 
w:   |  2. HANE  | 
B2G2 F2E3DCB, CDE4E2  | A4 FAc4B2 c2A2 E2d2  | \
w:   |   | 
B4 E2c4B2 c2A2 F2f2  | 
w:   | 
e4 cdba =gffe {f}e^de4Ac  | e2z2 Ace3fe2 d2c2 B2{c}Bc  | 
w:   |  TESLİM  | 
d2z2 Acd3fe2 d2c2 BcAB  | c2z2 ABc3dc2 B2A2 GA{B}GA  | 
w:   |   | 
B2z2 E2fe {f}eddc {d}cBBA GFE2  | \
w:   | 
e4 d2(3cBc d2(3BAB c2A3FAc  | 
w:   | 
e2z2 Ace3fe2 d2c2 B2{c}Bc  | d2z2 Acd3fe2 d2c2 BcAB  | 
w:  TESLİM  |   | 
c2z2 ABc3dc2 B2A2 GA{B}GA  | B2z2 E2fe {f}eddc {d}cBBA GFE2  | 
w:   |   | 
e4 d2(3cBc d2(3BAB c2A4z2  | a4 g2a4(3=c'ba gfed c2z2  | 
w:   |  3. HANE  | 
e4 e2^de f=gfe {f}ede4z2  | g4 f2g3/2f/ gba2 g2f3/2a/ gfed  | 
w:   |   | 
c4 bagf efed ^c^Bc3A{B}A^3/4c  | e2z2 Ace3fe2 d2c2 B2{c}Bc  | 
w:   |  TESLİM  | 
d2z2 Acd3fe2 d2c2 BcAB  | c2z2 ABc3dc2 B2A2 GA{B}GA  | 
w:   |   | 
B2z2 E2fe {f}eddc {d}cBBA GFE2  | \
w:   | 
e4 d2(3cBc d2(3BAB c2A3FAc  | 
w:   | 
e2z2 Ace3fe2 d2c2 B2{c}Bc  | d2z2 Acd3fe2 d2c2 BcAB  | 
w:  TESLİM  |   | 
c2z2 ABc3dc2 B2A2 GA{B}GA  | B2z2 E2fe {f}eddc {d}cBBA GFE2  | 
w:   |   | 
e4 d2(3cBc d2(3BAB c2A4z2  | z20  | e4 e2a4a2 g2a4z2  | \
w:   |  |  4. HANE  | 
e4 f2e2 d2c2 B2A6  | 
w:   | 
a8-a2=g4f4e2  | f4 a2=g2 f2e2 ^d2e4z2  | \
w:   |   | 
z4 f2=g4ga gfg4g2  | 
w:   | 
f2=g2 a2b2 a2g2 f2f4e2  | e4 a2=g2 f2{g}f2 e2{f}e2 d2c2  | d16-d4  | \
w:   |   |   | 
c2d2 e2f2 e2d2 c2B2 A2B2  | 
w:   | 
c6d2 e2c2 d2B2 c2A2  | e6b2 a2g4f4e2  | \
w:   |   | 
e2^d2 e2f2 e2e2 =d2c4z2  | 
w:   | 
B2c2 d2c2 d2c2 d2e6  | z4 f2e2 d2c2 d2ef ede2  | \
w:   |   | 
B2c2 d2B2 c2A2 f2e4z2  | 
w:   | 
E4 E2F2 G2A2 B2c2 B2E2  | a2g2 a2g2 a2g2 a2f2 e2d2  | \
w:   |   | 
c2d2 e4 a2e2 d2c2 B2A2  | 
w:   | 
f2d2 e2c2 d2B2 c2A2 B2^G2  | A2B2 c2d2 e2f2 g2a6  | \
w:   |   | 
a2g2 a2g2 a2g2 a2f2 e2d2  | 
w:   | 
c2d2 e4 a2e2 d2c2 B2A2  | f2d2 e2c2 d2B2 c2A2 B2^G2  | \
w:   |   | 
A12 z4 A2c2  | 
w:   | 
z20  | e2z2 Ace3fe2 d2c2 B2{c}Bc  | d2z2 Acd3fe2 d2c2 BcAB  | 
w:  |  TESLİM  |   | 
c2z2 ABc3dc2 B2A2 GA{B}GA  | B2z2 E2fe {f}eddc {d}cBBA GFE2  | 
w:   |   | 
e4 d2(3cBc d2(3BAB c2A3FAc  | e2z2 Ace3fe2 d2c2 B2{c}Bc  | 
w:   |  TESLİM  | 
d2z2 Acd3fe2 d2c2 BcAB  | c2z2 ABc3dc2 B2A2 GA{B}GA  | 
w:   |   | 
B2z2 E2fe {f}eddc {d}cBBA GFE2  | \
w:   | 
e4 d2(3cBc d2(3BAB c2A4z2  | 
w:   | 
|


